assets/Japanese here button/Flat/japanese_here_button_flat.svg

<svg width="32" height="32" viewBox="0 0 32 32" fill="none" xmlns="http://www.w3.org/2000/svg">
<path d="M2 6C2 3.79086 3.79086 2 6 2H26C28.2091 2 30 3.79086 30 6V26C30 28.2091 28.2091 30 26 30H6C3.79086 30 2 28.2091 2 26V6Z" fill="#00A6ED"/>
<path d="M6 7C5.44772 7 5 7.44772 5 8C5 8.55228 5.44772 9 6 9H13V21H6C5.44772 21 5 21.4477 5 22C5 22.5523 5.44772 23 6 23H13C13 23.5523 13.4477 24 14 24C14.5523 24 15 23.5523 15 23V8C15 7.44772 14.5523 7 14 7H6Z" fill="white"/>
<path d="M18 7C17.4477 7 17 7.44772 17 8C17 8.55228 17.4477 9 18 9H25V21H18C17.4477 21 17 21.4477 17 22C17 22.5523 17.4477 23 18 23H25C25 23.5523 25.4477 24 26 24C26.5523 24 27 23.5523 27 23V8C27 7.44772 26.5523 7 26 7H18Z" fill="white"/>
</svg>

<svg xmlns="http://www.w3.org/2000/svg" width="32" height="32" fill="none"><path fill="#00A6ED" d="M2 6a4 4 0 0 1 4-4h20a4 4 0 0 1 4 4v20a4 4 0 0 1-4 4H6a4 4 0 0 1-4-4V6Z"/><path fill="#fff" d="M6 7a1 1 0 0 0 0 2h7v12H6a1 1 0 1 0 0 2h7a1 1 0 1 0 2 0V8a1 1 0 0 0-1-1H6ZM18 7a1 1 0 1 0 0 2h7v12h-7a1 1 0 1 0 0 2h7a1 1 0 1 0 2 0V8a1 1 0 0 0-1-1h-8Z"/></svg>
